!!!COM: Schubert, Franz
!!!CDT: 1797/01/31-1828/11/19
!!!SCT: D. 790
!!!OPR: 12 Deutsche Tänze
!!!OPS: 171
!!!ONM: 10
**kern	**kern	**dynam
*part1	*part1	*part1
*staff2	*staff1	*
*I"Klavier	*	*
*I'Klav.	*	*
*clefF4	*clefG2	*
*k[f#c#g#d#a#]	*k[f#c#g#d#a#]	*
*M3/4	*M3/4	*
=1	=1	=1
4r	(4dd#m	p
=	=	=
*B:	*B:	*
4FF#	(8cc#L)	fp
.	8gg#^J	.
4F# 4A# 4e	8f#L	.
.	8b#XJ	.
4F# 4A# 4e	8cc#L	.
.	8dd#J	.
=	=	=
4BB	4b	.
4F# 4B 4d#	8f#)	.
.	8r	.
4F# 4B 4d#	(8dd#L	pp
.	8ff#J	.
=	=	=
4FF#	4b 4bb	.
4F# 4c# 4e	8a#) 8aa#	.
.	8r	.
4F# 4c# 4e	(8ff#L	.
.	8aa#J	.
=	=	=
4BB	4cc# 4ccc#	.
4F# 4B 4d#	8b) 8bb	.
.	8r	.
4F# 4B 4d#	(4dd#m	fp
=	=	=
4FF#	(8cc#L)	.
.	8gg#J	.
4F# 4A# 4e	8f#L	.
.	8b#XJ	.
4F# 4A# 4e	8cc#L	.
.	8dd#J	.
!!linebreak:original
=	=	=
4BB	4b	.
4F# 4B 4d#	8f#)	.
.	8r	.
4F# 4B 4d#	(8dd#L	pp
.	8gg#J	.
=	=	=
*g#:	*g#:	*
4DD#	4b 4bb	.
4D# 4F##X 4c#	8a#) 8aa#	.
.	8r	.
4D# 4F## 4c#	(8dd#L	.
.	8ff##XJ	.
=	=	=
4GG#	(2g#) 2gg#	.
4D# 4G# 4B	.	.
=:|!	=:|!	=:|!
4GG#	2g#) 2gg#	.
4D# 4G# 4B	.	.
4r	(4dd#m	pp
=	=	=
*B:	*B:	*
4AA#	(8cc#L)	.
.	8gg#^J	.
4F# 4c# 4e	8f#L	.
.	8b#XJ	.
4F# 4c# 4e	8cc#L	.
.	8dd#J	.
=	=	=
4E	4cc#	.
4F# 4A# 4c#	8f#)	.
.	8r	.
4F# 4A# 4c#	(4dd#m	.
!!linebreak:original
=	=	=
4AA#	(8cc#L)	.
.	8ggn^J	.
4Gn 4c# 4e	8gnL	.
.	8b#XJ	.
4G 4c# 4e	8cc#L	.
.	8dd#J	.
=	=	=
4E	4cc#	.
4F# 4A# 4c#	8f#)	.
.	8r	.
4F# 4A# 4c#	(8ff#L	mf
.	8aa#J	.
=	=	=
4FF##X	4dd#^ 4ddd#	.
4F##X 4A# 4c# 4e	8cc#) 8ccc#	.
.	8r	.
4F## 4A# 4c# 4e	(8eeL	.
.	8aa#J	.
=	=	=
4GG#	4cc#^ 4ccc#	.
4G# 4B 4d#	8b) 8bb	.
.	8r	.
*	*8va	*
4G# 4B 4d#	(4ddd#^m	f
=	=	=
4FF#	(8ccc#L)	.
.	8bbbJ	.
4F# 4A# 4e	8aaa#L	.
.	8fff#J	.
4F# 4A# 4e	8eeeL	.
.	8ccc#J	.
=	=	=
4BB	4bb)	.
*	*X8va	*
4F# 4B 4d#	4r	.
4r	(4dd#m	pp
!!linebreak:original
=	=	=
4AA#	(8cc#L)	.
.	8gg#^J	.
4F# 4c# 4e	8f#L	.
.	8b#XJ	.
4F# 4c# 4e	8cc#L	.
.	8dd#J	.
=	=	=
4E	4cc#	.
4F# 4A# 4c#	8f#)	.
.	8r	.
4F# 4A# 4c#	(4dd#m	.
=	=	=
4AA#	(8cc#L)	.
.	8ggn^J	.
4Gn 4c# 4e	8gnL	.
.	8b#XJ	.
4G 4c# 4e	8cc#L	.
.	8dd#J	.
=	=	=
4E	4cc#	.
4F# 4A# 4c#	8f#)	.
.	8r	.
4F# 4A# 4c#	(8ff#L	mf
.	8aa#J	.
=	=	=
4FF##X	4dd#^ 4ddd#	.
4F##X 4A# 4c# 4e	8cc#) 8ccc#	.
.	8r	.
4F## 4A# 4c# 4e	(8eeL	.
.	8aa#J	.
=	=	=
4GG#	4cc#^ 4ccc#	.
4G# 4B 4d#	8b) 8bb	.
.	8r	.
*	*8va	*
4G# 4B 4d#	(4ddd#^m	f
!!linebreak:original
=	=	=
4FF#	(8ccc#L)	.
.	8bbbJ	.
4F# 4A# 4e	8aaa#L	.
.	8fff#J	.
4F# 4A# 4e	8eeeL	.
.	8ccc#J	.
=	=	=
4BB	4bb)	.
*	*X8va	*
4F# 4B 4d#	4r	.
==	==	==
*-	*-	*-
!!!system-decoration: {(s1,s2)}
!!!AGN: Walzer
!!!EED: Wolfgang Drescher
!!!END: 2025/11/03
!!!ENC: Florian Moldaschl
!!!EEV: 2025/10/15
!!!title: @{OPR}, @{SCT} №@{ONM}
